gtk-icons/Papirus-GTK/24x24/actions/view-bank-account-checking.svg

<?xml version="1.0" encoding="UTF-8" standalone="no"?>
<!-- Created with Inkscape (http://www.inkscape.org/) -->

<svg
   xmlns:osb="http://www.openswatchbook.org/uri/2009/osb"
   xmlns:dc="http://purl.org/dc/elements/1.1/"
   xmlns:cc="http://creativecommons.org/ns#"
   xmlns:rdf="http://www.w3.org/1999/02/22-rdf-syntax-ns#"
   xmlns:svg="http://www.w3.org/2000/svg"
   xmlns="http://www.w3.org/2000/svg"
   xmlns:sodipodi="http://sodipodi.sourceforge.net/DTD/sodipodi-0.dtd"
   xmlns:inkscape="http://www.inkscape.org/namespaces/inkscape"
   sodipodi:docname="view-bank-account-checking.svg"
   inkscape:export-filename="/home/sam/source-symbolic.png"
   inkscape:export-xdpi="270"
   inkscape:export-ydpi="270"
   height="24"
   id="svg7384"
   style="enable-background:new"
   version="1.1"
   inkscape:version="0.91 r13725"
   width="24">
  <sodipodi:namedview
     inkscape:bbox-nodes="true"
     inkscape:bbox-paths="false"
     bordercolor="#666666"
     borderlayer="false"
     borderopacity="1"
     inkscape:current-layer="layer12"
     inkscape:cx="11.446949"
     inkscape:cy="8.0648754"
     gridtolerance="10"
     inkscape:guide-bbox="true"
     guidetolerance="10"
     id="namedview88"
     inkscape:object-nodes="true"
     inkscape:object-paths="true"
     objecttolerance="10"
     pagecolor="#f7f7f7"
     inkscape:pageopacity="0"
     inkscape:pageshadow="2"
     showborder="true"
     showgrid="false"
     showguides="true"
     inkscape:showpageshadow="false"
     inkscape:snap-bbox="true"
     inkscape:snap-bbox-edge-midpoints="false"
     inkscape:snap-bbox-midpoints="true"
     inkscape:snap-center="false"
     inkscape:snap-global="true"
     inkscape:snap-grids="true"
     inkscape:snap-intersection-paths="true"
     inkscape:snap-midpoints="true"
     inkscape:snap-nodes="true"
     inkscape:snap-object-midpoints="true"
     inkscape:snap-others="true"
     inkscape:snap-page="false"
     inkscape:snap-smooth-nodes="true"
     inkscape:snap-to-guides="true"
     inkscape:window-height="847"
     inkscape:window-maximized="1"
     inkscape:window-width="1600"
     inkscape:window-x="0"
     inkscape:window-y="30"
     inkscape:zoom="1">
    <inkscape:grid
       color="#000000"
       dotted="false"
       empcolor="#0800ff"
       empopacity="0.4627451"
       empspacing="4"
       enabled="true"
       id="grid4866"
       opacity="0.16470588"
       originx="-224.0002"
       originy="-316.00336"
       snapvisiblegridlinesonly="true"
       spacingx="0.25px"
       spacingy="0.25px"
       type="xygrid"
       visible="true" />
  </sodipodi:namedview>
  <metadata
     id="metadata90">
    <rdf:RDF>
      <cc:Work
         rdf:about="">
        <dc:format>image/svg+xml</dc:format>
        <dc:type
           rdf:resource="http://purl.org/dc/dcmitype/StillImage" />
        <dc:title>Paper Symbolic Icon Theme</dc:title>
      </cc:Work>
    </rdf:RDF>
  </metadata>
  <title
     id="title8473">Paper Symbolic Icon Theme</title>
  <defs
     id="defs7386">
    <linearGradient
       id="linearGradient5606"
       osb:paint="solid">
      <stop
         id="stop5608"
         offset="0"
         style="stop-color:#000000;stop-opacity:1;" />
    </linearGradient>
  </defs>
  <g
     inkscape:groupmode="layer"
     id="layer12"
     inkscape:label="actions"
     style="display:inline"
     transform="translate(-465.0004,107.00336)">
    <path
       style="opacity:0.5;fill:#000000;fill-opacity:1;stroke:none"
       d="M 11 5 L 4 12 L 6 12 L 6 19 L 14.376953 19 C 14.143092 18.52135 14 17.991916 14 17.427734 C 14 16.030015 14.823891 14.840779 16 14.267578 L 16 12 L 18 12 L 11 5 z M 11 10 C 12.10457 10 13 10.895467 13 12 C 13 13.104533 12.10457 14 11 14 C 13.99989 13.9982 14 16.400391 14 16.400391 L 14 17 L 8 17 L 8 16.400391 C 8 16.400391 7.99989 14.0018 11 14 C 9.89543 14 9 13.104533 9 12 C 9 10.895467 9.89543 10 11 10 z M 17.5 14 L 17.5 14.857422 C 16.11942 14.857422 15 16.007575 15 17.427734 C 15 18.847894 16.11942 20 17.5 20 C 18.86656 20 19.975647 18.870943 19.998047 17.470703 A 0.41662656 0.42857124 0 0 0 20 17.427734 A 0.41662656 0.42857124 0 0 0 19.583984 17 A 0.41662656 0.42857124 0 0 0 19.166016 17.427734 C 19.166016 18.374508 18.42039 19.142578 17.5 19.142578 C 16.57962 19.142578 15.833984 18.374508 15.833984 17.427734 C 15.833984 16.480962 16.57962 15.714844 17.5 15.714844 L 17.5 16.572266 L 19.166016 15.285156 L 17.5 14 z "
       transform="translate(465.0004,-107.00336)"
       id="path4408" />
    <g
       style="enable-background:new"
       id="g4315"
       transform="matrix(0.3,0,0,0.33333333,477.1004,-87.670027)">
      <g
         transform="translate(-505.0002,-41)"
         style="display:inline"
         inkscape:label="actions"
         id="layer12-5" />
    </g>
  </g>
</svg>

<?xml version="1.0" encoding="UTF-8" standalone="no"?>
<!-- Created with Inkscape (http://www.inkscape.org/) -->
<svg id="svg7384" xmlns:rdf="http://www.w3.org/1999/02/22-rdf-syntax-ns#" style="enable-background:new" xmlns="http://www.w3.org/2000/svg" xmlns:osb="http://www.openswatchbook.org/uri/2009/osb" height="24" width="24" version="1.1" xmlns:cc="http://creativecommons.org/ns#" xmlns:dc="http://purl.org/dc/elements/1.1/">
 <metadata id="metadata90">
  <rdf:RDF>
   <cc:Work rdf:about="">
    <dc:format>image/svg+xml</dc:format>
    <dc:type rdf:resource="http://purl.org/dc/dcmitype/StillImage"/>
    <dc:title>Paper Symbolic Icon Theme</dc:title>
   </cc:Work>
  </rdf:RDF>
 </metadata>
 <title id="title8473">Paper Symbolic Icon Theme</title>
 <g id="layer12" transform="translate(-465 107)">
  <path id="path4408" opacity=".5" d="m11 5l-7 7h2v7h8.377c-0.234-0.479-0.377-1.008-0.377-1.572 0-1.398 0.824-2.587 2-3.16v-2.268h2l-7-7zm0 5c1.105 0 2 0.895 2 2s-0.895 2-2 2c3-0.002 3 2.4 3 2.4v0.6h-6v-0.6s-0.0001-2.398 3-2.4c-1.1046 0-2-0.895-2-2s0.8954-2 2-2zm6.5 4v0.857c-1.381 0-2.5 1.151-2.5 2.571s1.119 2.572 2.5 2.572c1.367 0 2.476-1.129 2.498-2.529a0.41663 0.42857 0 0 0 0.002 -0.043 0.41663 0.42857 0 0 0 -0.416 -0.428 0.41663 0.42857 0 0 0 -0.418 0.428c0 0.947-0.746 1.715-1.666 1.715s-1.666-0.768-1.666-1.715 0.746-1.713 1.666-1.713v0.857l1.666-1.287-1.666-1.285z" transform="translate(465 -107)"/>
  <g id="g4315" style="enable-background:new" transform="matrix(.3 0 0 .33333 477.1 -87.67)"></g>
 </g>
</svg>
